; HEADER_BLOCK_START
; generated by Creality_Print V7.0.1.4212 on 2026-02-15 at 10:57:27
; total layer number: 121
; filament_density: 1.24
; filament_diameter: 1.75
; max_z_height: 23.58
; creality_uuid: 628ac767-9375-4807-9693-0a23655ca3e3
; HEADER_BLOCK_END

; MINX = 97.10
; MINY = 4.27
; MINZ = 0.00
; MAXX = 122.90
; MAXY = 9.75
; MAXZ = 23.60

; multicolor_method = 0 
; THUMBNAIL_BLOCK_START

;
; THUMBNAIL_BLOCK_END

; THUMBNAIL_BLOCK_START

;
; THUMBNAIL_BLOCK_END

; external perimeters extrusion width = 0.42mm
; perimeters extrusion width = 0.45mm
; infill extrusion width = 0.45mm
; solid infill extrusion width = 0.42mm
; top infill extrusion width = 0.42mm
; support material extrusion width = 0.42mm
; first layer extrusion width = 0.50mm

; EXECUTABLE_BLOCK_START
EXCLUDE_OBJECT_DEFINE NAME=Marcador_de_llaves_2.0.stl_id_0_copy_0 CENTER=110,7.00965 POLYGON=[[97.1,4.26713],[122.9,4.26713],[122.9,9.75217],[97.1,9.75217],[97.1,4.26713]]
M73 P0 R12
; max_print_temp = 60,240
;TYPE:Custom

; =======================================
; PIECE ITERATION 1
; =======================================

M220 S100 ;Reset Feedrate 
M221 S100 ;Reset Flowrate 
 
M140 S60 ;Set final bed temp  
G28 ;Home 
 
G92 E0 ;Reset Extruder 
G1 Z2.0 F3000 ;Move Z Axis up 
M104 S240 ;Set final nozzle temp  
G1 X-2.0 Y20 Z0.28 F5000.0 ;Move to start position 
M190 S60 ;Wait for bed temp to stabilize  
M109 S240 ;Wait for nozzle temp to stabilize  
G1 X-2.0 Y145.0 Z0.28 F1500.0 E15 ;Draw the first line 
G1 X-1.7 Y145.0 Z0.28 F5000.0 ;Move to side a little 
G1 X-1.7 Y20 Z0.28 F1500.0 E30 ;Draw the second line 
G92 E0 ;Reset Extruder 
G1 E-1.0000 F1800 ;Retract a bit 
M73 P1 R11
G1 Z2.0 F3000 ;Move Z Axis up 
G1 E0.0000 F1800
G90
G21
M83 ; use relative distances for extrusion
; filament start gcode
SET_PRESSURE_ADVANCE ADVANCE=0.048; Override pressure advance value
G1 E-.5 F1800
G1 Z.2 F18000
M106 S0
;LAYER_CHANGE
;:0.2
;HEIGHT:0.2
;BEFORE_LAYER_CHANGE
;0.2
G92 E0

;_SET_FAN_SPEED_CHANGING_LAYER
SET_VELOCITY_LIMIT ACCEL=500 ACCEL_TO_DECEL=125
SET_VELOCITY_LIMIT SQUARE_CORNER_VELOCITY=9
; OBJECT_ID: 75
; printing object Marcador de llaves 2.0.stl id:0 copy 0
EXCLUDE_OBJECT_START NAME=Marcador_de_llaves_2.0.stl_id_0_copy_0
G1 X96.406 Y4.274 Z.3 F18000
G1 Z.2
G1 E.5 F1800
;TYPE:Brim
;WIDTH:0.5
G1 F3000
G1 X96.455 Y3.498 E.02809
G1 X96.599 Y2.74 E.02784
G1 X96.835 Y2.008 E.0278
G1 X97.225 Y1.196 E.03251
G1 X97.64 Y.545 E.02785
G1 X97.903 Y.229 E.01487
G1 X122.112 Y.229 E.87412
G1 X122.165 Y.285 E.00278
G1 X122.618 Y.909 E.02784
G1 X122.989 Y1.583 E.02776
G1 X123.338 Y2.511 E.03583
G1 X123.519 Y3.313 E.02969
G1 X123.594 Y4.276 E.03486
G1 X123.594 Y9.745 E.19746
G1 X123.545 Y10.522 E.02809
G1 X123.401 Y11.279 E.02784
G1 X123.164 Y12.012 E.02782
G1 X122.821 Y12.74 E.02905
G1 X122.36 Y13.475 E.03131
G1 X121.868 Y14.067 E.02781
G1 X121.305 Y14.594 E.02784
G1 X120.682 Y15.047 E.02784
G1 X120.008 Y15.417 E.02775
G1 X119.027 Y15.782 E.0378
G1 X118.277 Y15.948 E.02772
G1 X117.314 Y16.023 E.03488
G1 X102.684 Y16.023 E.52824
G1 X101.907 Y15.974 E.02809
G1 X101.15 Y15.83 E.02784
G1 X100.417 Y15.593 E.02782
G1 X99.689 Y15.251 E.02905
G1 X98.955 Y14.789 E.03131
G1 X98.362 Y14.297 E.02781
G1 X97.835 Y13.734 E.02784
G1 X97.382 Y13.111 E.02784
G1 X97.012 Y12.437 E.02775
G1 X96.647 Y11.456 E.0378
G1 X96.481 Y10.706 E.02772
G1 X96.406 Y9.743 E.03488
G1 X96.406 Y4.314 E.19602
G1 X96.863 Y4.314 F18000
G1 F3000
G1 X96.863 Y4.293 E.00077
G1 X96.909 Y3.563 E.02639
G1 X97.045 Y2.845 E.02638
G1 X97.265 Y2.169 E.02567
G1 X97.63 Y1.41 E.03044
G1 X98.067 Y.747 E.02864
G1 X98.182 Y.686 E.00469
G1 X121.821 Y.686 E.85354
G1 X121.932 Y.742 E.0045
G1 X122.235 Y1.162 E.01868
G1 X122.576 Y1.783 E.02559
M73 P2 R11
G1 X122.896 Y2.634 E.0328
G1 X123.067 Y3.391 E.02805
G1 X123.137 Y4.299 E.03286
G1 X123.137 Y9.726 E.19596
G1 X123.089 Y10.473 E.02701
G1 X122.955 Y11.174 E.02577
G1 X122.735 Y11.852 E.02574
G1 X122.415 Y12.527 E.02698
G1 X121.994 Y13.198 E.0286
G1 X121.54 Y13.746 E.0257
G1 X121.02 Y14.235 E.02577
G1 X120.443 Y14.655 E.02577
G1 X119.826 Y14.996 E.02544
G1 X118.888 Y15.345 E.03614
G1 X118.2 Y15.495 E.02542
G1 X117.291 Y15.566 E.03293
G1 X102.703 Y15.566 E.52674
G1 X101.973 Y15.52 E.02639
G1 X101.272 Y15.388 E.02577
G1 X100.577 Y15.164 E.02636
G1 X99.902 Y14.844 E.02698
G1 X99.231 Y14.423 E.0286
G1 X98.683 Y13.969 E.0257
G1 X98.194 Y13.449 E.02577
G1 X97.774 Y12.872 E.02577
G1 X97.433 Y12.255 E.02544
G1 X97.084 Y11.317 E.03614
G1 X96.934 Y10.629 E.02542
G1 X96.864 Y9.731 E.03254
G1 X96.863 Y4.354 E.19413
G1 X97.321 Y4.354 F18000
G1 F3000
G1 X97.321 Y4.303 E.00186
G1 X97.365 Y3.612 E.02499
G1 X97.487 Y2.968 E.02368
G1 X97.687 Y2.349 E.0235
G1 X98.034 Y1.628 E.02888
G1 X98.313 Y1.204 E.01831
G1 X98.428 Y1.143 E.00469
G1 X121.588 Y1.143 E.83622
G1 X121.699 Y1.2 E.00451
G1 X121.852 Y1.414 E.00951
G1 X122.163 Y1.984 E.02343
G1 X122.454 Y2.756 E.0298
G1 X122.614 Y3.47 E.0264
G1 X122.68 Y4.322 E.03087
G1 X122.68 Y9.708 E.19445
G1 X122.633 Y10.424 E.02591
G1 X122.509 Y11.068 E.02369
G1 X122.305 Y11.691 E.02366
G1 X122.009 Y12.314 E.02492
G1 X121.627 Y12.922 E.02592
G1 X121.212 Y13.426 E.0236
G1 X120.734 Y13.877 E.0237
G1 X120.204 Y14.264 E.0237
G1 X119.625 Y14.583 E.02386
G1 X118.749 Y14.907 E.03373
G1 X118.124 Y15.043 E.0231
G1 X117.268 Y15.109 E.03099
G1 X102.721 Y15.109 E.52524
G1 X102.038 Y15.066 E.0247
G1 X101.377 Y14.942 E.02431
G1 X100.738 Y14.734 E.02425
G1 X100.115 Y14.439 E.0249
G1 X99.507 Y14.057 E.02592
G1 X99.003 Y13.641 E.0236
G1 X98.552 Y13.163 E.0237
G1 X98.165 Y12.633 E.0237
G1 X97.846 Y12.055 E.02386
G1 X97.522 Y11.178 E.03373
G1 X97.386 Y10.553 E.0231
G1 X97.321 Y9.718 E.03023
G1 X97.321 Y4.394 E.19224
G1 X97.778 Y4.394 F18000
G1 F3000
G1 X97.778 Y4.313 E.00293
G1 X97.821 Y3.661 E.02359
G1 X97.929 Y3.089 E.021
G1 X98.11 Y2.528 E.02131
G1 X98.438 Y1.846 E.02731
G1 X98.559 Y1.661 E.00798
G1 X98.674 Y1.6 E.00469
G1 X121.352 Y1.6 E.81881
G1 X121.472 Y1.671 E.00506
G1 X121.75 Y2.183 E.02102
G1 X122.011 Y2.878 E.02682
G1 X122.162 Y3.547 E.02476
G1 X122.222 Y4.345 E.02887
G1 X122.222 Y9.688 E.19294
G1 X122.177 Y10.374 E.02481
G1 X122.063 Y10.961 E.02161
G1 X121.876 Y11.529 E.02158
G1 X121.604 Y12.101 E.02287
G1 X121.25 Y12.661 E.0239
G1 X120.871 Y13.119 E.02149
G1 X120.434 Y13.53 E.02163
G1 X119.95 Y13.882 E.02162
G1 X119.425 Y14.17 E.02162
G1 X118.611 Y14.47 E.03131
G1 X118.049 Y14.59 E.02079
G1 X117.246 Y14.652 E.02908
G1 X102.739 Y14.652 E.52376
G1 X102.103 Y14.612 E.02301
G1 X101.499 Y14.5 E.02221
G1 X100.916 Y14.311 E.02212
G1 X100.342 Y14.041 E.02288
G1 X99.783 Y13.69 E.02385
G1 X99.31 Y13.3 E.02213
G1 X98.9 Y12.864 E.02163
G1 X98.547 Y12.379 E.02162
G1 X98.259 Y11.854 E.02162
G1 X97.96 Y11.04 E.03131
G1 X97.839 Y10.477 E.02079
G1 X97.779 Y9.706 E.02793
G1 X97.778 Y4.434 E.19035
G1 X98.235 Y4.434 F18000
G1 F3000
G1 X98.235 Y4.332 E.00367
G1 X98.274 Y3.727 E.0219
G1 X98.371 Y3.211 E.01897
G1 X98.532 Y2.706 E.01912
G1 X98.806 Y2.135 E.02289
G1 X98.93 Y2.057 E.00527
G1 X101.747 Y2.057 E.10173
G1 X101.851 Y2.105 E.00413
G1 X101.883 Y2.215 E.00413
G1 X101.809 Y2.316 E.00454
G1 X101.612 Y2.416 E.00796
G1 X101.244 Y2.691 E.0166
G1 X100.883 Y3.114 E.0201
G1 X100.73 Y3.381 E.01111
G1 X100.631 Y3.643 E.01009
G1 X100.536 Y4.121 E.01762
G1 X100.539 Y9.915 E.20918
G1 X100.617 Y10.33 E.01526
G1 X100.68 Y10.517 E.0071
G1 X100.939 Y10.988 E.01942
G1 X101.014 Y11.089 E.00455
G1 X101.31 Y11.389 E.01522
G1 X101.544 Y11.562 E.01051
G1 X101.738 Y11.672 E.00803
G1 X102.218 Y11.841 E.01838
G1 X102.71 Y11.909 E.01796
G1 X117.288 Y11.909 E.52635
G1 X117.678 Y11.868 E.01413
G1 X117.953 Y11.8 E.01024
G1 X118.428 Y11.577 E.01894
G1 X118.662 Y11.413 E.01032
G1 X118.901 Y11.186 E.01188
G1 X119.09 Y10.949 E.01094
G1 X119.289 Y10.586 E.01495
G1 X119.437 Y10.104 E.01822
G1 X119.48 Y9.718 E.01402
G1 X119.461 Y4.104 E.20271
G1 X119.383 Y3.689 E.01524
G1 X119.32 Y3.502 E.0071
G1 X119.062 Y3.032 E.01938
G1 X118.982 Y2.926 E.00479
G1 X118.648 Y2.6 E.01686
G1 X118.357 Y2.401 E.01272
G1 X118.198 Y2.315 E.00655
G1 X118.129 Y2.223 E.00413
G1 X118.153 Y2.111 E.00413
G1 X118.263 Y2.057 E.00442
G1 X121.08 Y2.057 E.1017
G1 X121.2 Y2.129 E.00507
G1 X121.328 Y2.365 E.00972
G1 X121.574 Y3.019 E.02522
G1 X121.709 Y3.625 E.02242
G1 X121.765 Y4.367 E.02687
G1 X121.765 Y9.669 E.19141
G1 X121.724 Y10.306 E.02306
G1 X121.621 Y10.837 E.01953
G1 X121.454 Y11.35 E.01949
M73 P3 R11
G1 X121.206 Y11.873 E.02086
G1 X120.884 Y12.385 E.02184
G1 X120.543 Y12.799 E.0194
G1 X120.149 Y13.171 E.01956
G1 X119.712 Y13.49 E.01952
G1 X119.226 Y13.756 E.02002
G1 X118.493 Y14.026 E.0282
G1 X117.974 Y14.138 E.01918
G1 X117.223 Y14.194 E.02718
G1 X102.758 Y14.194 E.52228
G1 X102.168 Y14.158 E.02133
G1 X101.62 Y14.057 E.02012
G1 X101.092 Y13.888 E.02
G1 X100.569 Y13.642 E.02086
G1 X100.043 Y13.313 E.02241
G1 X99.617 Y12.959 E.02
G1 X99.247 Y12.564 E.01953
G1 X98.939 Y12.141 E.0189
G1 X98.682 Y11.673 E.01929
G1 X98.398 Y10.903 E.02963
G1 X98.291 Y10.402 E.01849
G1 X98.236 Y9.683 E.02605
G1 X98.235 Y4.474 E.18807
G1 X98.692 Y4.474 F18000
G1 F3000
G1 X98.692 Y4.352 E.00442
G1 X98.728 Y3.793 E.02023
G1 X98.818 Y3.315 E.01755
G1 X98.955 Y2.884 E.01631
G1 X99.094 Y2.592 E.01168
G1 X99.218 Y2.514 E.00528
G1 X100.497 Y2.514 E.04618
G1 X100.601 Y2.562 E.00413
G1 X100.632 Y2.672 E.00413
G1 X100.337 Y3.147 E.02021
G1 X100.207 Y3.471 E.01261
G1 X100.079 Y4.135 E.0244
G1 X100.092 Y10.012 E.21219
G1 X100.166 Y10.407 E.01451
G1 X100.243 Y10.653 E.00931
G1 X100.577 Y11.267 E.02525
G1 X100.693 Y11.415 E.00678
G1 X101.046 Y11.763 E.0179
G1 X101.323 Y11.961 E.01229
G1 X101.594 Y12.106 E.01108
G1 X102.167 Y12.296 E.02182
G1 X102.719 Y12.366 E.02008
G1 X117.282 Y12.366 E.52579
G1 X117.718 Y12.323 E.01585
G1 X118.052 Y12.246 E.01234
G1 X118.613 Y11.995 E.0222
G1 X118.985 Y11.737 E.01635
G1 X119.262 Y11.466 E.01399
G1 X119.494 Y11.162 E.01382
G1 X119.73 Y10.708 E.01847
G1 X119.87 Y10.248 E.01736
G1 X119.933 Y9.775 E.01722
G1 X119.918 Y4.113 E.20443
G1 X119.833 Y3.611 E.01838
G1 X119.757 Y3.367 E.00924
G1 X119.399 Y2.717 E.02679
G1 X119.39 Y2.603 E.00413
G1 X119.519 Y2.514 E.00565
G1 X120.801 Y2.514 E.04629
G1 X120.929 Y2.603 E.00563
G1 X121.132 Y3.141 E.02076
G1 X121.254 Y3.683 E.02006
G1 X121.308 Y4.39 E.0256
G1 X121.308 Y9.649 E.1899
G1 X121.268 Y10.256 E.02196
G1 X121.175 Y10.731 E.01746
G1 X121.024 Y11.189 E.01741
G1 X120.8 Y11.659 E.01881
G1 X120.518 Y12.109 E.01919
G1 X120.202 Y12.492 E.01793
G1 X119.849 Y12.824 E.01748
G1 X119.459 Y13.107 E.01741
G1 X119.026 Y13.342 E.01776
G1 X118.374 Y13.583 E.02509
G1 X117.899 Y13.685 E.01756
G1 X117.2 Y13.737 E.02528
G1 X102.776 Y13.737 E.52082
G1 X102.215 Y13.702 E.02027
G1 X101.723 Y13.61 E.01807
G1 X101.252 Y13.458 E.01788
G1 X100.782 Y13.236 E.01878
G1 X100.305 Y12.936 E.02035
G1 X99.925 Y12.62 E.01785
G1 X99.606 Y12.279 E.01685
G1 X99.331 Y11.903 E.01683
G1 X99.095 Y11.473 E.01769
G1 X98.836 Y10.766 E.02718
G1 X98.744 Y10.328 E.01618
G1 X98.693 Y9.671 E.0238
G1 X98.692 Y4.514 E.18619
G1 X99.149 Y4.514 F18000
G1 F3000
G1 X99.149 Y4.371 E.00517
G1 X99.182 Y3.858 E.01855
G1 X99.26 Y3.435 E.01553
G1 X99.377 Y3.066 E.01396
G1 X99.508 Y2.971 E.00584
G1 X99.713 Y2.971 E.0074
G1 X99.817 Y3.019 E.00413
G1 X99.84 Y3.159 E.00514
G1 X99.788 Y3.289 E.00504
G1 X99.622 Y4.149 E.03163
G1 X99.645 Y10.108 E.21516
G1 X99.716 Y10.484 E.0138
G1 X99.804 Y10.778 E.01108
G1 X100.225 Y11.558 E.03203
G1 X100.377 Y11.745 E.0087
G1 X100.787 Y12.139 E.02053
G1 X101.114 Y12.368 E.01442
G1 X101.459 Y12.542 E.01394
G1 X102.121 Y12.751 E.02507
G1 X102.727 Y12.823 E.02204
G1 X117.275 Y12.823 E.52527
G1 X117.756 Y12.778 E.01743
G1 X118.143 Y12.694 E.01431
G1 X118.789 Y12.417 E.02537
G1 X119.313 Y12.055 E.023
G1 X119.575 Y11.799 E.01324
G1 X119.851 Y11.447 E.01613
G1 X120.13 Y10.929 E.02126
G1 X120.325 Y10.298 E.02384
G1 X120.39 Y9.766 E.01935
G1 X120.375 Y4.122 E.20375
G1 X120.286 Y3.544 E.02112
G1 X120.159 Y3.15 E.01495
G1 X120.172 Y3.037 E.00413
G1 X120.289 Y2.971 E.00484
G1 X120.485 Y2.971 E.00706
G1 X120.613 Y3.06 E.00563
G1 X120.695 Y3.281 E.00853
G1 X120.798 Y3.741 E.01702
G1 X120.851 Y4.402 E.02394
G1 X120.851 Y9.639 E.18907
G1 X120.812 Y10.205 E.02051
G1 X120.734 Y10.607 E.01477
G1 X120.602 Y11.01 E.01532
G1 X120.403 Y11.431 E.01682
G1 X120.151 Y11.834 E.01714
G1 X119.873 Y12.172 E.01582
G1 X119.55 Y12.476 E.01601
G1 X119.206 Y12.724 E.01531
G1 X118.828 Y12.928 E.01551
G1 X118.256 Y13.139 E.02202
G1 X117.824 Y13.232 E.01595
G1 X117.178 Y13.28 E.02338
G1 X102.794 Y13.28 E.51935
G1 X102.264 Y13.246 E.0192
G1 X101.845 Y13.168 E.01538
G1 X101.429 Y13.035 E.01576
G1 X100.995 Y12.83 E.01733
G1 X100.582 Y12.57 E.01764
G1 X100.246 Y12.292 E.01574
G1 X99.954 Y11.98 E.01542
G1 X99.713 Y11.649 E.01478
G1 X99.509 Y11.274 E.01543
G1 X99.28 Y10.65 E.024
G1 X99.199 Y10.272 E.01394
G1 X99.15 Y9.648 E.02261
G1 X99.149 Y4.554 E.18392
G1 X100.985 Y4.55 F18000
G1 F3000
G1 X100.984 Y4.212 E.01222
G1 X101.054 Y3.815 E.01453
G1 X101.161 Y3.533 E.0109
G1 X101.276 Y3.347 E.00788
G1 X101.516 Y3.058 E.01358
G1 X101.808 Y2.829 E.01339
G1 X102.075 Y2.694 E.01083
G1 X102.369 Y2.606 E.01107
G1 X102.704 Y2.567 E.01218
G1 X117.291 Y2.567 E.52666
G1 X117.679 Y2.62 E.01413
G1 X117.968 Y2.711 E.01093
G1 X118.093 Y2.773 E.00504
G1 X118.399 Y2.984 E.01341
G1 X118.661 Y3.251 E.01353
G1 X118.888 Y3.65 E.01657
G1 X118.936 Y3.781 E.00504
G1 X119.004 Y4.093 E.01151
G1 X119.023 Y9.727 E.20345
G1 X118.982 Y10.059 E.01205
G1 X118.852 Y10.455 E.01505
M73 P4 R11
G1 X118.732 Y10.665 E.00876
G1 X118.592 Y10.849 E.00833
G1 X118.339 Y11.09 E.01259
G1 X118.233 Y11.163 E.00466
G1 X117.845 Y11.356 E.01565
G1 X117.633 Y11.413 E.00793
G1 X117.296 Y11.452 E.01225
G1 X102.701 Y11.452 E.52695
G1 X102.371 Y11.411 E.01203
G1 X101.974 Y11.281 E.01505
G1 X101.764 Y11.161 E.00876
G1 X101.58 Y11.021 E.00833
G1 X101.339 Y10.768 E.01259
G1 X101.112 Y10.369 E.01659
G1 X101.064 Y10.238 E.00504
G1 X100.996 Y9.927 E.01151
G1 X100.985 Y4.59 E.19268
G1 X101.435 Y4.589 F18000
G1 F3000
G1 X101.434 Y4.29 E.01081
G1 X101.483 Y3.972 E.01161
G1 X101.555 Y3.764 E.00794
G1 X101.621 Y3.646 E.00489
G1 X101.873 Y3.343 E.01425
G1 X102.08 Y3.196 E.00914
G1 X102.277 Y3.104 E.00786
G1 X102.418 Y3.061 E.00534
G1 X102.696 Y3.024 E.01012
G1 X117.3 Y3.024 E.52729
G1 X117.618 Y3.073 E.01162
G1 X117.826 Y3.145 E.00794
G1 X118.151 Y3.368 E.01422
G1 X118.326 Y3.562 E.00945
G1 X118.487 Y3.87 E.01254
G1 X118.559 Y4.198 E.01211
G1 X118.566 Y9.737 E.19999
G1 X118.547 Y9.918 E.00658
G1 X118.453 Y10.232 E.01184
G1 X118.374 Y10.381 E.00609
G1 X118.222 Y10.58 E.00905
G1 X118.028 Y10.755 E.00942
G1 X117.72 Y10.916 E.01254
G1 X117.582 Y10.959 E.00524
G1 X117.304 Y10.995 E.01012
G1 X102.693 Y10.995 E.52755
G1 X102.511 Y10.976 E.00658
G1 X102.197 Y10.882 E.01184
G1 X102.048 Y10.803 E.00609
G1 X101.849 Y10.651 E.00905
G1 X101.674 Y10.457 E.00942
G1 X101.513 Y10.149 E.01254
G1 X101.441 Y9.822 E.01211
G1 X101.435 Y4.629 E.18747
G1 X101.891 Y4.629 F18000
G1 F3000
G1 X101.891 Y4.28 E.01263
G1 X101.934 Y4.046 E.00857
G1 X101.981 Y3.928 E.0046
G1 X102.15 Y3.706 E.01005
G1 X102.263 Y3.615 E.00525
G1 X102.48 Y3.514 E.00865
G1 X102.687 Y3.482 E.00758
G1 X117.311 Y3.482 E.52799
G1 X117.544 Y3.524 E.00857
G1 X117.663 Y3.571 E.0046
G1 X117.884 Y3.74 E.01005
G1 X117.975 Y3.853 E.00525
G1 X118.077 Y4.07 E.00865
G1 X118.109 Y4.278 E.00758
G1 X118.109 Y9.744 E.19735
G1 X118.093 Y9.87 E.0046
G1 X118.017 Y10.095 E.00857
G1 X117.85 Y10.313 E.00992
G1 X117.737 Y10.404 E.00525
G1 X117.52 Y10.506 E.00865
G1 X117.313 Y10.538 E.00758
G1 X102.686 Y10.538 E.52812
G1 X102.559 Y10.522 E.0046
G1 X102.334 Y10.446 E.00857
G1 X102.116 Y10.28 E.00992
G1 X102.025 Y10.166 E.00525
G1 X101.923 Y9.949 E.00865
G1 X101.891 Y9.742 E.00758
G1 X101.891 Y4.669 E.18314
G1 X102.348 Y4.669 F18000
G1 F3000
G1 X102.348 Y4.267 E.01452
G1 X102.377 Y4.156 E.00413
G1 X102.424 Y4.072 E.0035
G1 X102.561 Y3.963 E.00632
G1 X102.677 Y3.939 E.00429
G1 X117.323 Y3.939 E.52882
G1 X117.434 Y3.967 E.00413
G1 X117.518 Y4.014 E.0035
G1 X117.627 Y4.151 E.00632
G1 X117.652 Y4.267 E.00429
G1 X117.652 Y9.752 E.19804
G1 X117.623 Y9.863 E.00413
G1 X117.576 Y9.948 E.0035
G1 X117.439 Y10.057 E.00632
