; HEADER_BLOCK_START
; generated by Creality_Print V7.0.1.4212 on 2026-02-23 at 13:53:07
; total layer number: 163
; filament_density: 1.24
; filament_diameter: 1.75
; max_z_height: 26.92
; creality_uuid: 41714ee1-ea2e-4fd4-8e55-06063052c936
; HEADER_BLOCK_END

; MINX = 90.00
; MINY = 4.94
; MINZ = 0.00
; MAXX = 130.00
; MAXY = 13.94
; MAXZ = 26.93

; multicolor_method = 0 
; THUMBNAIL_BLOCK_START

;
; THUMBNAIL_BLOCK_END

; THUMBNAIL_BLOCK_START

;
; THUMBNAIL_BLOCK_END

; external perimeters extrusion width = 0.42mm
; perimeters extrusion width = 0.45mm
; infill extrusion width = 0.45mm
; solid infill extrusion width = 0.42mm
; top infill extrusion width = 0.42mm
; first layer extrusion width = 0.50mm

; EXECUTABLE_BLOCK_START
EXCLUDE_OBJECT_DEFINE NAME=MecaCaja-CajaMecanicaBlender3-Curve.032.stl_id_0_copy_0 CENTER=110,9.43834 POLYGON=[[125.936,4.94078],[126.365,4.9775],[126.789,5.05791],[127.201,5.18115],[127.468,5.2865],[127.854,5.47807],[128.099,5.62727],[128.447,5.88159],[128.767,6.1701],[129.055,6.4898],[129.309,6.83733],[129.527,7.20905],[129.65,7.46838],[129.801,7.87163],[129.91,8.28823],[129.959,8.57121],[129.996,9.00029],[129.998,9.73279],[129.989,10.0198],[129.959,10.3054],[129.879,10.7285],[129.756,11.1411],[129.591,11.539],[129.386,11.9179],[129.144,12.2739],[128.866,12.6033],[128.557,12.9026],[128.218,13.1686],[127.854,13.3986],[127.468,13.5902],[127.065,13.7413],[126.648,13.8504],[126.365,13.8992],[126.08,13.9285],[125.792,13.9383],[94.2077,13.9383],[93.7771,13.9163],[93.3515,13.8504],[93.0725,13.7824],[92.7988,13.6955],[92.401,13.5307],[92.146,13.3986],[91.9006,13.2494],[91.666,13.0838],[91.3367,12.8064],[91.0374,12.4967],[90.8562,12.2739],[90.6906,12.0393],[90.4731,11.6676],[90.2949,11.2756],[90.1987,11.005],[90.0896,10.5884],[90.0408,10.3055],[90.0041,9.87638],[90.0016,9.14388],[90.0237,8.7138],[90.0628,8.42931],[90.1576,8.00923],[90.2949,7.60106],[90.4731,7.20905],[90.6906,6.83734],[90.9449,6.48981],[91.2334,6.17011],[91.5531,5.88159],[91.9006,5.62728],[92.146,5.47807],[92.401,5.34596],[92.7988,5.18116],[93.2115,5.05791],[93.6345,4.97751],[93.9202,4.94814],[94.2072,4.93834],[125.936,4.94078]]
M73 P0 R24
; max_print_temp = 60,250
;TYPE:Custom
M220 S100 ;Reset Feedrate 
M221 S100 ;Reset Flowrate 
 
M140 S60 ;Set final bed temp  
G28 ;Home 
 
G92 E0 ;Reset Extruder 
G1 Z2.0 F3000 ;Move Z Axis up 
M104 S250 ;Set final nozzle temp  
G1 X-2.0 Y20 Z0.28 F5000.0 ;Move to start position 
M190 S60 ;Wait for bed temp to stabilize  
M109 S250 ;Wait for nozzle temp to stabilize  
G1 X-2.0 Y145.0 Z0.28 F1500.0 E15 ;Draw the first line 
G1 X-1.7 Y145.0 Z0.28 F5000.0 ;Move to side a little 
G1 X-1.7 Y20 Z0.28 F1500.0 E30 ;Draw the second line 
G92 E0 ;Reset Extruder 
G1 E-1.0000 F1800 ;Retract a bit 
G1 Z2.0 F3000 ;Move Z Axis up 
G1 E0.0000 F1800
G90
G21
M83 ; use relative distances for extrusion
; filament start gcode
SET_PRESSURE_ADVANCE ADVANCE=0.048; Override pressure advance value
G1 E-.8 F1800
G1 Z.2 F18000
M106 S0
;LAYER_CHANGE
;:0.2
;HEIGHT:0.2
;BEFORE_LAYER_CHANGE
;0.2
G92 E0
;TIME_ELAPSED:44.734570
;_SET_FAN_SPEED_CHANGING_LAYER
SET_VELOCITY_LIMIT ACCEL=500 ACCEL_TO_DECEL=125
SET_VELOCITY_LIMIT SQUARE_CORNER_VELOCITY=9
; OBJECT_ID: 231
; printing object MecaCaja-CajaMecanicaBlender3-Curve.032.stl id:0 copy 0
EXCLUDE_OBJECT_START NAME=MecaCaja-CajaMecanicaBlender3-Curve.032.stl_id_0_copy_0
G1 X84.291 Y13.585 Z.5 F18000
G1 Z.2
G1 E.8 F1800
;TYPE:Brim
;WIDTH:0.5
G1 F3000
G1 X83.639 Y12.011 E.06151
G1 X83.417 Y10.322 E.06151
G1 X83.639 Y8.633 E.06151
G1 X83.774 Y8.306 E.01279
G1 X83.79 Y8.189 E.00427
G1 X83.703 Y7.532 E.02394
G1 X83.926 Y5.843 E.06151
G1 X84.578 Y4.269 E.06151
G1 X85.615 Y2.917 E.06151
G1 X86.966 Y1.88 E.06151
G1 X88.54 Y1.228 E.06151
G1 X88.689 Y1.209 E.00543
G1 X88.841 Y1.121 E.00632
G1 X89.526 Y.229 E.04064
G1 X98.754 Y.229 E.33317
G1 X99.791 Y1.581 E.06151
G1 X100.443 Y3.155 E.06151
G1 X100.634 Y4.61 E.053
G1 X94.207 Y4.61 E.23205
G1 X93.929 Y4.662 E.01022
G1 X93.659 Y4.774 E.01056
G1 X93.136 Y5.069 E.02168
G1 X92.308 Y5.632 E.03614
G1 X91.302 Y6.387 E.04542
G1 X90.043 Y7.399 E.05834
G1 X89.982 Y7.5 E.00424
G1 X89.805 Y8.059 E.02119
G1 X89.699 Y8.661 E.02206
G1 X89.676 Y9.002 E.01233
G1 X89.686 Y10.061 E.03825
G1 X89.765 Y10.637 E.02097
G1 X89.892 Y11.122 E.01814
G1 X90.107 Y11.667 E.02116
G1 X90.407 Y12.205 E.02221
G1 X90.778 Y12.698 E.02228
G1 X91.107 Y13.041 E.01715
G1 X91.483 Y13.357 E.01775
G1 X92.002 Y13.694 E.02233
G1 X92.526 Y13.943 E.02097
G1 X92.976 Y14.096 E.01715
G1 X93.456 Y14.204 E.01775
G1 X94.033 Y14.263 E.02097
G1 X100.263 Y14.267 E.22492
G1 X100.074 Y15.705 E.05238
G1 X99.422 Y17.279 E.06151
G1 X98.385 Y18.63 E.06151
G1 X97.033 Y19.667 E.06151
G1 X95.459 Y20.319 E.06151
G1 X93.77 Y20.542 E.06151
G1 X92.081 Y20.319 E.06151
G1 X90.507 Y19.667 E.06151
G1 X89.156 Y18.63 E.06151
G1 X88.119 Y17.279 E.06151
G1 X87.801 Y16.511 E.03002
G1 X87.677 Y16.387 E.00632
G1 X86.679 Y15.974 E.03899
G1 X85.328 Y14.937 E.06151
G1 X84.315 Y13.617 E.06006
G1 X84.683 Y13.338 F18000
G1 F3000
M73 P1 R24
G1 X84.082 Y11.874 E.05714
G1 X83.88 Y10.34 E.05586
G1 X84.082 Y8.771 E.05714
G1 X84.192 Y8.493 E.01078
G1 X84.242 Y8.252 E.00888
G1 X84.242 Y8.12 E.00477
G1 X84.167 Y7.514 E.02207
G1 X84.378 Y5.945 E.05714
G1 X84.988 Y4.485 E.05714
G1 X85.955 Y3.232 E.05714
G1 X87.213 Y2.273 E.05714
G1 X88.643 Y1.681 E.05586
G1 X88.932 Y1.596 E.01089
G1 X89.058 Y1.524 E.00522
G1 X89.211 Y1.389 E.00739
G1 X89.71 Y.739 E.02957
G1 X89.819 Y.686 E.00438
G1 X98.461 Y.686 E.31201
G1 X98.569 Y.74 E.00438
G1 X99.398 Y1.828 E.04939
G1 X99.99 Y3.257 E.05586
G1 X100.093 Y3.998 E.027
G1 X100.059 Y4.107 E.00413
G1 X99.957 Y4.153 E.00404
G1 X94.22 Y4.153 E.20712
G1 X93.742 Y4.244 E.01759
G1 X93.427 Y4.38 E.01238
G1 X92.916 Y4.669 E.0212
G1 X92.032 Y5.268 E.03857
G1 X91.014 Y6.032 E.04594
G1 X89.766 Y7.035 E.05782
G1 X89.648 Y7.17 E.00645
G1 X89.543 Y7.373 E.00825
G1 X89.353 Y7.989 E.02328
G1 X89.25 Y8.576 E.02151
G1 X89.22 Y8.965 E.01409
G1 X89.228 Y10.057 E.03943
G1 X89.325 Y10.76 E.02562
G1 X89.47 Y11.298 E.02011
G1 X89.679 Y11.827 E.02057
G1 X90.003 Y12.42 E.02439
G1 X90.453 Y13.02 E.02709
G1 X90.818 Y13.395 E.01889
G1 X91.183 Y13.702 E.01721
G1 X91.746 Y14.073 E.02433
G1 X92.323 Y14.353 E.02318
G1 X92.883 Y14.544 E.02134
G1 X93.416 Y14.659 E.0197
G1 X94.04 Y14.72 E.02263
G1 X99.586 Y14.723 E.20023
G1 X99.689 Y14.771 E.00413
G1 X99.721 Y14.878 E.00404
G1 X99.621 Y15.602 E.02639
G1 X99.011 Y17.063 E.05714
G1 X98.07 Y18.29 E.05586
G1 X96.817 Y19.257 E.05714
G1 X95.322 Y19.876 E.05842
G1 X93.752 Y20.078 E.05714
G1 X92.184 Y19.867 E.05714
G1 X90.724 Y19.257 E.05714
G1 X89.496 Y18.315 E.05586
G1 X88.529 Y17.063 E.05714
G1 X88.228 Y16.348 E.02799
G1 X88.114 Y16.178 E.0074
G1 X88.01 Y16.073 E.00534
G1 X87.839 Y15.96 E.0074
G1 X86.896 Y15.564 E.03696
G1 X85.668 Y14.622 E.05586
G1 X84.708 Y13.37 E.05698
G1 X85.076 Y13.091 F18000
G1 F3000
G1 X84.534 Y11.772 E.05149
G1 X84.343 Y10.357 E.05154
G1 X84.526 Y8.903 E.05293
G1 X84.641 Y8.576 E.0125
G1 X84.687 Y8.358 E.00807
G1 X84.694 Y8.054 E.01096
G1 X84.63 Y7.499 E.02019
G1 X84.83 Y6.049 E.05282
G1 X85.398 Y4.702 E.05277
G1 X86.294 Y3.548 E.05277
G1 X87.46 Y2.665 E.05279
G1 X88.788 Y2.115 E.0519
G1 X89.048 Y2.038 E.00981
G1 X89.277 Y1.924 E.00926
G1 X89.582 Y1.657 E.01463
G1 X89.936 Y1.196 E.02095
G1 X90.044 Y1.143 E.00438
G1 X98.234 Y1.144 E.2957
G1 X98.343 Y1.198 E.00439
G1 X99.006 Y2.074 E.03968
G1 X99.539 Y3.362 E.05032
G1 X99.568 Y3.54 E.00652
G1 X99.535 Y3.65 E.00413
G1 X99.432 Y3.696 E.00407
G1 X94.232 Y3.696 E.18775
G1 X93.556 Y3.827 E.02488
G1 X93.196 Y3.985 E.01419
G1 X92.655 Y4.294 E.02248
G1 X91.755 Y4.905 E.03929
G1 X90.742 Y5.665 E.04573
G1 X89.417 Y6.741 E.06162
G1 X89.238 Y6.969 E.01046
G1 X89.103 Y7.248 E.01118
G1 X88.902 Y7.918 E.02527
G1 X88.801 Y8.491 E.021
G1 X88.765 Y8.924 E.0157
G1 X88.771 Y10.052 E.04072
G1 X88.885 Y10.887 E.03044
G1 X89.047 Y11.472 E.02192
G1 X89.251 Y11.988 E.02001
G1 X89.598 Y12.631 E.02641
G1 X90.132 Y13.345 E.03218
G1 X90.486 Y13.709 E.01833
G1 X90.884 Y14.047 E.01886
G1 X91.488 Y14.45 E.0262
G1 X92.117 Y14.761 E.02535
G1 X92.728 Y14.974 E.02337
G1 X93.379 Y15.115 E.02405
G1 X94.046 Y15.177 E.02418
G1 X99.061 Y15.18 E.18107
G1 X99.165 Y15.228 E.00413
G1 X99.197 Y15.336 E.00407
G1 X99.17 Y15.497 E.00591
G1 X98.602 Y16.846 E.05283
G1 X97.729 Y17.976 E.05154
G1 X96.6 Y18.847 E.05149
G1 X95.185 Y19.433 E.0553
G1 X93.736 Y19.615 E.05274
G1 X92.288 Y19.415 E.05277
G1 X90.971 Y18.865 E.05152
G1 X89.836 Y18 E.05154
G1 X88.938 Y16.845 E.05283
G1 X88.655 Y16.183 E.02599
G1 X88.43 Y15.848 E.01457
G1 X88.257 Y15.689 E.00848
G1 X88.006 Y15.534 E.01064
G1 X87.113 Y15.154 E.03505
G1 X86.009 Y14.307 E.05026
G1 X85.1 Y13.123 E.05387
G1 X85.469 Y12.844 F18000
G1 F3000
G1 X84.977 Y11.635 E.04713
G1 X84.807 Y10.373 E.04599
G1 X84.971 Y9.024 E.04908
G1 X85.09 Y8.663 E.01369
G1 X85.144 Y8.359 E.01115
G1 X85.147 Y7.993 E.01323
G1 X85.093 Y7.486 E.0184
G1 X85.281 Y6.155 E.04856
G1 X85.806 Y4.921 E.04841
G1 X86.633 Y3.865 E.04841
G1 X87.705 Y3.058 E.04846
G1 X88.933 Y2.55 E.048
G1 X89.262 Y2.443 E.01248
G1 X89.474 Y2.336 E.00857
G1 X89.585 Y2.262 E.00484
G1 X89.875 Y2.008 E.01389
G1 X90.163 Y1.651 E.01657
G1 X90.27 Y1.6 E.00427
G1 X98.007 Y1.601 E.27935
G1 X98.116 Y1.655 E.00441
G1 X98.612 Y2.319 E.02994
G1 X98.915 Y3.049 E.02852
G1 X98.91 Y3.164 E.00413
G1 X98.788 Y3.239 E.00519
G1 X94.244 Y3.239 E.16405
G1 X93.365 Y3.412 E.03235
G1 X92.964 Y3.591 E.01589
G1 X92.394 Y3.918 E.02372
G1 X91.478 Y4.541 E.04001
G1 X90.452 Y5.312 E.04633
G1 X89.135 Y6.381 E.06125
G1 X89.054 Y6.463 E.00414
G1 X88.822 Y6.78 E.0142
G1 X88.663 Y7.125 E.0137
G1 X88.45 Y7.847 E.02717
G1 X88.352 Y8.406 E.02051
G1 X88.31 Y8.88 E.01718
G1 X88.314 Y10.046 E.04208
G1 X88.447 Y11.018 E.03542
G1 X88.605 Y11.587 E.02134
G1 X88.823 Y12.149 E.02174
G1 X89.192 Y12.84 E.0283
G1 X89.761 Y13.612 E.03463
G1 X90.195 Y14.061 E.02255
G1 X90.637 Y14.432 E.02081
G1 X91.227 Y14.825 E.02563
G1 X91.908 Y15.167 E.02751
G1 X92.571 Y15.403 E.0254
G1 X93.275 Y15.56 E.02606
G1 X94.052 Y15.634 E.02819
G1 X98.409 Y15.637 E.15729
G1 X98.513 Y15.685 E.00413
G1 X98.535 Y15.827 E.00521
G1 X98.211 Y16.597 E.03016
G1 X97.414 Y17.636 E.04726
G1 X96.352 Y18.455 E.04842
G1 X95.049 Y18.99 E.05086
G1 X93.721 Y19.151 E.04831
G1 X92.393 Y18.964 E.04843
G1 X91.188 Y18.455 E.04723
G1 X90.174 Y17.683 E.04599
G1 X89.346 Y16.624 E.04854
G1 X89.028 Y15.921 E.02788
G1 X88.729 Y15.503 E.01854
G1 X88.488 Y15.295 E.0115
G1 X88.256 Y15.151 E.00988
G1 X87.331 Y14.746 E.03644
G1 X86.349 Y13.992 E.04471
G1 X85.493 Y12.876 E.05077
G1 X85.862 Y12.598 F18000
G1 F3000
G1 X85.429 Y11.533 E.04152
G1 X85.27 Y10.387 E.04175
G1 X85.418 Y9.137 E.04546
G1 X85.521 Y8.815 E.01223
G1 X85.592 Y8.448 E.01347
G1 X85.604 Y8.004 E.01607
G1 X85.556 Y7.477 E.01908
G1 X85.733 Y6.262 E.04435
G1 X86.215 Y5.141 E.04404
G1 X86.97 Y4.184 E.04404
G1 X87.95 Y3.452 E.04415
G1 X89.087 Y2.981 E.04444
G1 X89.474 Y2.848 E.01477
G1 X89.734 Y2.712 E.0106
G1 X89.892 Y2.601 E.00698
G1 X90.168 Y2.358 E.01326
G1 X90.384 Y2.105 E.012
G1 X90.488 Y2.057 E.00416
G1 X97.778 Y2.058 E.26319
G1 X97.888 Y2.114 E.0045
G1 X98.215 Y2.564 E.02007
G1 X98.237 Y2.676 E.00413
G1 X98.167 Y2.766 E.00413
G1 X98.104 Y2.782 E.00234
G1 X94.257 Y2.781 E.13889
G1 X93.29 Y2.961 E.03552
G1 X92.781 Y3.172 E.01988
G1 X92.133 Y3.543 E.02698
G1 X91.201 Y4.178 E.04071
G1 X90.161 Y4.959 E.04694
G1 X88.853 Y6.021 E.06086
G1 X88.68 Y6.2 E.00899
G1 X88.461 Y6.499 E.01339
G1 X88.222 Y7.006 E.02021
G1 X87.999 Y7.775 E.02893
G1 X87.903 Y8.322 E.02004
G1 X87.855 Y8.834 E.01856
G1 X87.857 Y10.038 E.0435
G1 X88.009 Y11.148 E.04043
G1 X88.181 Y11.759 E.02292
G1 X88.394 Y12.307 E.02122
G1 X88.784 Y13.047 E.0302
G1 X89.388 Y13.877 E.03706
G1 X89.861 Y14.374 E.02478
G1 X90.389 Y14.816 E.02486
G1 X90.967 Y15.201 E.02507
G1 X91.696 Y15.572 E.02954
G1 X92.41 Y15.831 E.02743
G1 X93.168 Y16.004 E.02806
G1 X94.059 Y16.091 E.03231
G1 X97.72 Y16.094 E.13221
G1 X97.824 Y16.141 E.00413
G1 X97.846 Y16.284 E.00521
G1 X97.801 Y16.379 E.00381
G1 X97.098 Y17.296 E.04171
G1 X96.105 Y18.063 E.04532
G1 X94.914 Y18.546 E.04639
G1 X93.707 Y18.688 E.04387
G1 X92.499 Y18.512 E.04408
G1 X91.435 Y18.064 E.04172
G1 X90.512 Y17.366 E.04175
G1 X89.75 Y16.399 E.04445
G1 X89.393 Y15.644 E.03016
G1 X89.022 Y15.152 E.02226
G1 X88.794 Y14.955 E.01086
G1 X88.503 Y14.767 E.01252
G1 X87.552 Y14.339 E.03764
G1 X86.689 Y13.677 E.03928
G1 X85.886 Y12.63 E.04764
G1 E-.56 F1800
;WIPE_START
G1 F3000
G1 X85.501 Y11.707 E-.228
;WIPE_END
G1 E-.012 F1800
G1 X89.464 Y14.896 Z.5 F18000
G1 Z.2
G1 E.8 F1800
G1 F3000
G1 X89.535 Y14.806 E.00413
G1 X89.685 Y14.823 E.00547
G1 X90.09 Y15.162 E.01906
G1 X90.766 Y15.612 E.02934
G1 X91.548 Y16.004 E.03156
G1 X92.316 Y16.278 E.02946
G1 X93.058 Y16.448 E.02746
G1 X94.065 Y16.548 E.03655
G1 X96.817 Y16.55 E.09935
G1 X96.921 Y16.598 E.00413
G1 X96.952 Y16.708 E.00413
G1 X96.925 Y16.771 E.00247
G1 X96.758 Y16.981 E.00972
G1 X95.89 Y17.651 E.03958
G1 X94.816 Y18.092 E.04189
G1 X93.731 Y18.225 E.03947
G1 X92.64 Y18.071 E.03979
G1 X91.651 Y17.654 E.03876
G1 X90.824 Y17.023 E.03757
G1 X90.151 Y16.169 E.03926
G1 X89.811 Y15.46 E.02839
G1 X89.486 Y15.008 E.0201
G1 X89.472 Y14.935 E.00269
G1 E-.56 F1800
;WIPE_START
G1 F3000
G1 X89.535 Y14.806 E-.03277
G1 X89.685 Y14.823 E-.03454
G1 X90.09 Y15.162 E-.12036
G1 X90.237 Y15.26 E-.04034
;WIPE_END
G1 E-.012 F1800
G1 X91.073 Y16.346 Z.5 F18000
G1 Z.2
G1 E.8 F1800
G1 F3000
G1 X91.202 Y16.342 E.00467
G1 X91.335 Y16.409 E.00537
G1 X92.156 Y16.706 E.0315
G1 X93.021 Y16.903 E.03203
G1 X94.071 Y17.005 E.03812
G1 X95.562 Y17.006 E.05381
G1 X95.666 Y17.054 E.00413
G1 X95.697 Y17.164 E.00413
G1 X95.614 Y17.27 E.00488
G1 X94.681 Y17.648 E.03631
G1 X93.718 Y17.761 E.03504
G1 X92.781 Y17.629 E.03417
G1 X91.898 Y17.262 E.0345
G1 X91.161 Y16.705 E.03337
G1 X91.033 Y16.55 E.00727
G1 X91.006 Y16.439 E.00413
G1 X91.049 Y16.378 E.00269
G1 E-.56 F1800
;WIPE_START
G1 F3000
G1 X91.202 Y16.342 E-.03576
G1 X91.335 Y16.409 E-.03394
G1 X91.988 Y16.646 E-.1583
;WIPE_END
G1 E-.012 F1800
G1 X89.202 Y14.576 Z.5 F18000
G1 Z.2
G1 E.8 F1800
G1 F3000
G1 X89.052 Y14.579 E.00541
G1 X88.682 Y14.346 E.0158
G1 X87.776 Y13.934 E.03593
G1 X87.03 Y13.362 E.03395
G1 X86.273 Y12.383 E.04465
G1 X85.88 Y11.429 E.03726
G1 X85.733 Y10.365 E.03878
G1 X85.865 Y9.248 E.04063
G1 X85.971 Y8.894 E.01333
G1 X86.039 Y8.545 E.01283
G1 X86.061 Y8.023 E.01889
G1 X86.018 Y7.473 E.01989
G1 X86.183 Y6.37 E.04027
G1 X86.604 Y5.394 E.03839
G1 X87.281 Y4.528 E.03968
G1 X88.164 Y3.862 E.03993
G1 X89.245 Y3.41 E.04232
G1 X89.614 Y3.283 E.01409
G1 X89.938 Y3.121 E.01308
G1 X90.199 Y2.939 E.01148
G1 X90.464 Y2.707 E.0127
G1 X90.598 Y2.559 E.00721
G1 X90.699 Y2.514 E.00402
G1 X92.497 Y2.514 E.06491
G1 X92.601 Y2.562 E.00413
G1 X92.633 Y2.672 E.00413
G1 X92.565 Y2.77 E.00431
G1 X91.871 Y3.168 E.02889
G1 X90.924 Y3.814 E.04141
G1 X89.871 Y4.605 E.04753
G1 X88.519 Y5.709 E.06302
G1 X88.308 Y5.936 E.01119
G1 X88.043 Y6.314 E.01667
G1 X87.78 Y6.888 E.0228
M73 P2 R24
G1 X87.561 Y7.641 E.02831
G1 X87.453 Y8.238 E.0219
G1 X87.401 Y8.785 E.01984
G1 X87.4 Y10.03 E.04495
G1 X87.572 Y11.281 E.04558
G1 X87.739 Y11.877 E.02235
G1 X87.965 Y12.466 E.02278
G1 X88.375 Y13.252 E.03201
G1 X89.014 Y14.14 E.0395
G1 X89.226 Y14.37 E.01128
G1 X89.261 Y14.478 E.00413
G1 X89.223 Y14.542 E.00269
G1 E-.56 F1800
;WIPE_START
G1 F3000
G1 X89.052 Y14.579 E-.03976
G1 X88.682 Y14.346 E-.09977
G1 X88.328 Y14.185 E-.08847
;WIPE_END
G1 E-.012 F1800
G1 X87.727 Y13.103 Z.5 F18000
G1 Z.2
G1 E.8 F1800
G1 F3000
G1 X87.644 Y13.181 E.00413
G1 X87.517 Y13.16 E.00464
G1 X87.344 Y13.021 E.008
G1 X86.665 Y12.135 E.04029
G1 X86.322 Y11.292 E.03289
G1 X86.196 Y10.378 E.03329
G1 X86.313 Y9.353 E.03725
G1 X86.421 Y8.976 E.01418
G1 X86.496 Y8.555 E.01543
G1 X86.517 Y8.049 E.01828
G1 X86.48 Y7.475 E.0208
G1 X86.624 Y6.514 E.03506
G1 X87.011 Y5.615 E.03535
G1 X87.618 Y4.846 E.03536
G1 X88.409 Y4.255 E.03564
G1 X89.404 Y3.839 E.03895
G1 X89.756 Y3.717 E.01345
G1 X89.985 Y3.609 E.00914
G1 X90.099 Y3.607 E.00413
G1 X90.175 Y3.693 E.00413
G1 X90.126 Y3.842 E.00567
G1 X89.599 Y4.238 E.02381
