; HEADER_BLOCK_START
; generated by Creality_Print V7.0.1.4212 on 2026-02-15 at 17:27:02
; total layer number: 119
; filament_density: 1.24
; filament_diameter: 1.75
; max_z_height: 23.85
; creality_uuid: 742f9713-8dc1-4d8c-ae52-b509b0c4767e
; HEADER_BLOCK_END

; MINX = 96.85
; MINY = 4.26
; MINZ = 0.00
; MAXX = 123.05
; MAXY = 9.83
; MAXZ = 23.73

; multicolor_method = 0 
; THUMBNAIL_BLOCK_START

;
; THUMBNAIL_BLOCK_END

; #####################################
; PIEZA NUMERO 1
; #####################################

; THUMBNAIL_BLOCK_START

;
; THUMBNAIL_BLOCK_END

; external perimeters extrusion width = 0.42mm
; perimeters extrusion width = 0.45mm
; infill extrusion width = 0.45mm
; solid infill extrusion width = 0.42mm
; top infill extrusion width = 0.42mm
; first layer extrusion width = 0.50mm

; EXECUTABLE_BLOCK_START
EXCLUDE_OBJECT_DEFINE NAME=MarcaLlaves-Marcador_de_llaves_2.stl_id_0_copy_0 CENTER=109.949,7.04663 POLYGON=[[96.8458,4.26091],[123.052,4.26091],[123.052,9.83235],[96.8458,9.83235],[96.8458,4.26091]]
M73 P0 R12
; max_print_temp = 60,240
;TYPE:Custom
M220 S100 ;Reset Feedrate 
M221 S100 ;Reset Flowrate 
 
M140 S60 ;Set final bed temp  
G28 ;Home 
 
G92 E0 ;Reset Extruder 
G1 Z2.0 F3000 ;Move Z Axis up 
M104 S240 ;Set final nozzle temp  
G1 X-2.0 Y20 Z0.28 F5000.0 ;Move to start position 
M190 S60 ;Wait for bed temp to stabilize  
M109 S240 ;Wait for nozzle temp to stabilize  
G1 X-2.0 Y145.0 Z0.28 F1500.0 E15 ;Draw the first line 
G1 X-1.7 Y145.0 Z0.28 F5000.0 ;Move to side a little 
G1 X-1.7 Y20 Z0.28 F1500.0 E30 ;Draw the second line 
G92 E0 ;Reset Extruder 
G1 E-1.0000 F1800 ;Retract a bit 
M73 P1 R11
G1 Z2.0 F3000 ;Move Z Axis up 
G1 E0.0000 F1800
G90
G21
M83 ; use relative distances for extrusion
; filament start gcode
SET_PRESSURE_ADVANCE ADVANCE=0.048; Override pressure advance value
G1 E-.5 F1800
G1 Z.2 F18000
M106 S0
;LAYER_CHANGE
;:0.2
;HEIGHT:0.2
;BEFORE_LAYER_CHANGE
;0.2
G92 E0

;_SET_FAN_SPEED_CHANGING_LAYER
SET_VELOCITY_LIMIT ACCEL=500 ACCEL_TO_DECEL=125
SET_VELOCITY_LIMIT SQUARE_CORNER_VELOCITY=9
; OBJECT_ID: 236
; printing object MarcaLlaves-Marcador de llaves 2.stl id:0 copy 0
EXCLUDE_OBJECT_START NAME=MarcaLlaves-Marcador_de_llaves_2.stl_id_0_copy_0
G1 X96.242 Y4.268 Z.3 F18000
G1 Z.2
G1 E.5 F1800
;TYPE:Brim
;WIDTH:0.5
G1 F3000
G1 X96.29 Y3.491 E.02809
G1 X96.434 Y2.734 E.02784
G1 X96.671 Y2.001 E.0278
G1 X97.06 Y1.19 E.03251
G1 X97.475 Y.539 E.02785
G1 X97.733 Y.229 E.01458
G1 X122.181 Y.229 E.88271
G1 X122.228 Y.279 E.00248
G1 X122.68 Y.903 E.02784
G1 X123.051 Y1.576 E.02776
G1 X123.401 Y2.505 E.03583
G1 X123.581 Y3.307 E.02969
G1 X123.656 Y4.27 E.03486
G1 X123.656 Y9.825 E.20058
G1 X123.607 Y10.602 E.02809
G1 X123.464 Y11.359 E.02784
G1 X123.227 Y12.093 E.02782
G1 X122.884 Y12.82 E.02905
G1 X122.422 Y13.555 E.03131
G1 X121.93 Y14.147 E.02781
G1 X121.368 Y14.674 E.02784
G1 X120.744 Y15.127 E.02784
G1 X120.071 Y15.498 E.02775
G1 X119.089 Y15.862 E.0378
G1 X118.34 Y16.028 E.02772
G1 X117.377 Y16.103 E.03488
G1 X102.52 Y16.103 E.53643
G1 X101.743 Y16.054 E.02809
G1 X100.986 Y15.911 E.02784
G1 X100.252 Y15.674 E.02782
G1 X99.524 Y15.331 E.02905
G1 X98.79 Y14.869 E.03131
G1 X98.198 Y14.377 E.02781
G1 X97.67 Y13.815 E.02784
G1 X97.218 Y13.191 E.02784
G1 X96.847 Y12.517 E.02775
G1 X96.482 Y11.536 E.0378
G1 X96.317 Y10.787 E.02772
G1 X96.242 Y9.823 E.03488
G1 X96.242 Y4.308 E.19914
G1 X96.699 Y4.308 F18000
G1 F3000
G1 X96.699 Y4.287 E.00077
G1 X96.744 Y3.557 E.02639
G1 X96.881 Y2.839 E.02638
G1 X97.1 Y2.163 E.02567
G1 X97.466 Y1.403 E.03043
G1 X97.897 Y.747 E.02835
G1 X98.012 Y.686 E.0047
G1 X121.888 Y.686 E.86208
G1 X121.999 Y.742 E.0045
M73 P2 R11
G1 X122.298 Y1.155 E.01841
G1 X122.638 Y1.777 E.02559
G1 X122.958 Y2.627 E.0328
G1 X123.129 Y3.385 E.02805
G1 X123.199 Y4.293 E.03286
G1 X123.199 Y9.807 E.19908
G1 X123.151 Y10.553 E.02701
G1 X123.017 Y11.254 E.02577
G1 X122.797 Y11.932 E.02574
G1 X122.478 Y12.608 E.02698
G1 X122.056 Y13.278 E.0286
G1 X121.602 Y13.827 E.0257
G1 X121.082 Y14.315 E.02577
G1 X120.505 Y14.735 E.02577
G1 X119.889 Y15.076 E.02544
G1 X118.95 Y15.425 E.03614
G1 X118.263 Y15.576 E.02542
G1 X117.354 Y15.646 E.03293
G1 X102.538 Y15.646 E.53493
G1 X101.809 Y15.6 E.02639
G1 X101.107 Y15.468 E.02577
G1 X100.413 Y15.244 E.02636
G1 X99.737 Y14.925 E.02698
G1 X99.067 Y14.503 E.0286
G1 X98.518 Y14.049 E.0257
G1 X98.029 Y13.529 E.02577
G1 X97.609 Y12.952 E.02577
G1 X97.269 Y12.335 E.02544
G1 X96.92 Y11.397 E.03614
G1 X96.769 Y10.71 E.02542
G1 X96.699 Y9.811 E.03254
G1 X96.699 Y4.348 E.19725
G1 X97.156 Y4.348 F18000
G1 F3000
G1 X97.156 Y4.297 E.00186
G1 X97.2 Y3.606 E.02499
G1 X97.323 Y2.962 E.02368
G1 X97.523 Y2.342 E.0235
G1 X97.87 Y1.621 E.02888
G1 X98.144 Y1.204 E.01802
G1 X98.258 Y1.143 E.0047
G1 X121.655 Y1.143 E.84474
G1 X121.766 Y1.2 E.00451
G1 X121.915 Y1.407 E.00924
G1 X122.225 Y1.977 E.02343
G1 X122.516 Y2.75 E.0298
G1 X122.677 Y3.463 E.0264
G1 X122.742 Y4.316 E.03087
G1 X122.742 Y9.788 E.19757
G1 X122.696 Y10.504 E.02591
G1 X122.571 Y11.148 E.02369
G1 X122.368 Y11.771 E.02366
G1 X122.072 Y12.394 E.02492
G1 X121.69 Y13.002 E.02592
G1 X121.274 Y13.507 E.0236
G1 X120.797 Y13.957 E.0237
G1 X120.267 Y14.344 E.0237
G1 X119.688 Y14.663 E.02386
G1 X118.812 Y14.988 E.03373
G1 X118.187 Y15.123 E.0231
G1 X117.331 Y15.189 E.03099
G1 X102.557 Y15.189 E.53343
G1 X101.874 Y15.147 E.0247
G1 X101.212 Y15.022 E.02431
G1 X100.573 Y14.814 E.02425
G1 X99.95 Y14.519 E.0249
G1 X99.343 Y14.137 E.02592
G1 X98.838 Y13.721 E.0236
G1 X98.388 Y13.243 E.0237
G1 X98.001 Y12.713 E.0237
G1 X97.682 Y12.135 E.02386
G1 X97.357 Y11.259 E.03373
G1 X97.222 Y10.633 E.0231
G1 X97.157 Y9.799 E.03023
G1 X97.156 Y4.388 E.19536
G1 X97.614 Y4.388 F18000
G1 F3000
G1 X97.614 Y4.307 E.00293
G1 X97.656 Y3.655 E.02359
G1 X97.765 Y3.083 E.021
G1 X97.945 Y2.521 E.02131
G1 X98.273 Y1.839 E.02732
G1 X98.39 Y1.662 E.00769
G1 X98.505 Y1.6 E.0047
G1 X121.418 Y1.6 E.82728
G1 X121.538 Y1.671 E.00506
G1 X121.812 Y2.177 E.02077
G1 X122.074 Y2.872 E.02682
G1 X122.224 Y3.541 E.02476
G1 X122.285 Y4.338 E.02887
G1 X122.285 Y9.769 E.19606
G1 X122.24 Y10.454 E.02481
G1 X122.125 Y11.042 E.02161
G1 X121.938 Y11.609 E.02158
G1 X121.666 Y12.181 E.02287
G1 X121.313 Y12.741 E.0239
G1 X120.933 Y13.2 E.02149
G1 X120.497 Y13.61 E.02163
G1 X120.013 Y13.962 E.02162
G1 X119.488 Y14.25 E.02162
G1 X118.674 Y14.55 E.03131
G1 X118.111 Y14.67 E.02079
G1 X117.308 Y14.732 E.02908
G1 X102.575 Y14.732 E.53195
G1 X101.939 Y14.693 E.02301
G1 X101.334 Y14.58 E.02221
G1 X100.751 Y14.391 E.02212
G1 X100.178 Y14.121 E.02288
G1 X99.618 Y13.77 E.02385
G1 X99.145 Y13.38 E.02213
G1 X98.735 Y12.944 E.02163
G1 X98.383 Y12.46 E.02162
G1 X98.095 Y11.934 E.02162
G1 X97.795 Y11.121 E.03131
G1 X97.674 Y10.558 E.02079
G1 X97.614 Y9.786 E.02793
G1 X97.614 Y4.428 E.19347
G1 X98.071 Y4.428 F18000
G1 F3000
G1 X98.071 Y4.326 E.00367
G1 X98.11 Y3.721 E.0219
G1 X98.207 Y3.205 E.01897
G1 X98.368 Y2.7 E.01912
G1 X98.639 Y2.135 E.02264
G1 X98.762 Y2.057 E.00527
G1 X101.57 Y2.057 E.1014
G1 X101.674 Y2.105 E.00413
G1 X101.706 Y2.215 E.00413
G1 X101.632 Y2.316 E.00454
G1 X101.448 Y2.41 E.00746
G1 X101.079 Y2.684 E.0166
G1 X100.718 Y3.108 E.0201
G1 X100.565 Y3.375 E.01111
G1 X100.466 Y3.637 E.01009
G1 X100.372 Y4.115 E.01762
G1 X100.375 Y9.995 E.2123
G1 X100.452 Y10.411 E.01526
G1 X100.515 Y10.597 E.0071
G1 X100.774 Y11.068 E.01942
G1 X100.849 Y11.169 E.00455
G1 X101.145 Y11.469 E.01522
G1 X101.38 Y11.642 E.01051
G1 X101.573 Y11.752 E.00803
G1 X102.053 Y11.922 E.01838
G1 X102.546 Y11.989 E.01796
G1 X117.351 Y11.989 E.53454
G1 X117.74 Y11.948 E.01413
G1 X118.016 Y11.88 E.01024
G1 X118.49 Y11.657 E.01894
G1 X118.725 Y11.493 E.01032
G1 X118.963 Y11.266 E.01188
G1 X119.152 Y11.029 E.01094
G1 X119.352 Y10.667 E.01495
G1 X119.499 Y10.184 E.01822
G1 X119.542 Y9.798 E.01402
G1 X119.523 Y4.097 E.20583
G1 X119.445 Y3.683 E.01524
G1 X119.383 Y3.496 E.0071
G1 X119.124 Y3.026 E.01938
G1 X119.044 Y2.92 E.00479
G1 X118.712 Y2.596 E.01677
G1 X118.264 Y2.31 E.0192
G1 X118.202 Y2.213 E.00413
G1 X118.234 Y2.104 E.00413
G1 X118.338 Y2.057 E.00409
G1 X121.145 Y2.057 E.10137
G1 X121.266 Y2.129 E.00507
G1 X121.391 Y2.359 E.00946
G1 X121.637 Y3.013 E.02522
M73 P3 R11
G1 X121.772 Y3.619 E.02242
G1 X121.828 Y4.361 E.02687
G1 X121.828 Y9.749 E.19453
G1 X121.786 Y10.386 E.02306
G1 X121.684 Y10.918 E.01953
G1 X121.516 Y11.431 E.01949
G1 X121.269 Y11.953 E.02086
G1 X120.947 Y12.465 E.02184
G1 X120.605 Y12.879 E.0194
G1 X120.211 Y13.251 E.01956
G1 X119.775 Y13.57 E.01952
G1 X119.288 Y13.836 E.02002
G1 X118.555 Y14.106 E.0282
G1 X118.036 Y14.218 E.01918
G1 X117.285 Y14.275 E.02718
G1 X102.593 Y14.275 E.53047
G1 X102.004 Y14.239 E.02133
G1 X101.455 Y14.137 E.02012
G1 X100.928 Y13.968 E.02
G1 X100.405 Y13.723 E.02086
G1 X99.879 Y13.393 E.02241
G1 X99.452 Y13.04 E.02
G1 X99.083 Y12.645 E.01953
G1 X98.775 Y12.221 E.0189
G1 X98.517 Y11.753 E.01929
G1 X98.233 Y10.983 E.02963
G1 X98.127 Y10.482 E.01849
G1 X98.071 Y9.763 E.02605
G1 X98.071 Y4.468 E.19119
G1 X98.528 Y4.468 F18000
G1 F3000
G1 X98.528 Y4.345 E.00442
G1 X98.564 Y3.786 E.02023
G1 X98.654 Y3.309 E.01755
G1 X98.791 Y2.878 E.01632
G1 X98.926 Y2.592 E.01143
G1 X99.05 Y2.514 E.00528
G1 X100.327 Y2.514 E.0461
G1 X100.431 Y2.562 E.00413
G1 X100.462 Y2.672 E.00413
G1 X100.173 Y3.141 E.01992
G1 X100.043 Y3.465 E.01261
G1 X99.915 Y4.129 E.0244
G1 X99.928 Y10.092 E.21531
G1 X100.002 Y10.487 E.01451
G1 X100.079 Y10.733 E.00931
G1 X100.412 Y11.347 E.02525
G1 X100.529 Y11.495 E.00678
G1 X100.882 Y11.843 E.0179
G1 X101.158 Y12.042 E.01229
G1 X101.429 Y12.186 E.01108
G1 X102.003 Y12.376 E.02182
G1 X102.555 Y12.446 E.02008
G1 X117.344 Y12.446 E.53398
G1 X117.781 Y12.403 E.01585
G1 X118.114 Y12.326 E.01234
G1 X118.675 Y12.075 E.0222
G1 X119.047 Y11.817 E.01635
G1 X119.324 Y11.546 E.01399
G1 X119.557 Y11.242 E.01382
G1 X119.792 Y10.788 E.01847
G1 X119.933 Y10.328 E.01736
G1 X119.996 Y9.856 E.01722
G1 X119.98 Y4.107 E.20755
G1 X119.896 Y3.605 E.01838
G1 X119.819 Y3.361 E.00924
G1 X119.466 Y2.717 E.02652
G1 X119.457 Y2.603 E.00413
G1 X119.586 Y2.514 E.00564
G1 X120.866 Y2.514 E.04621
G1 X120.994 Y2.603 E.00563
G1 X121.194 Y3.135 E.02052
G1 X121.316 Y3.677 E.02006
G1 X121.371 Y4.384 E.0256
G1 X121.371 Y9.73 E.19302
G1 X121.33 Y10.336 E.02196
G1 X121.238 Y10.811 E.01746
G1 X121.087 Y11.269 E.01741
G1 X120.863 Y11.739 E.01881
G1 X120.58 Y12.189 E.01919
G1 X120.264 Y12.573 E.01793
G1 X119.911 Y12.904 E.01748
G1 X119.521 Y13.188 E.01741
G1 X119.089 Y13.422 E.01776
G1 X118.437 Y13.663 E.02509
G1 X117.961 Y13.765 E.01756
G1 X117.263 Y13.818 E.02528
G1 X102.611 Y13.818 E.52901
G1 X102.051 Y13.783 E.02027
G1 X101.559 Y13.691 E.01807
G1 X101.088 Y13.538 E.01788
G1 X100.617 Y13.316 E.01878
G1 X100.14 Y13.016 E.02035
G1 X99.76 Y12.7 E.01785
G1 X99.441 Y12.359 E.01685
G1 X99.166 Y11.983 E.01683
G1 X98.93 Y11.553 E.01769
G1 X98.671 Y10.847 E.02718
G1 X98.58 Y10.408 E.01618
G1 X98.529 Y9.751 E.0238
G1 X98.528 Y4.508 E.1893
G1 X98.985 Y4.508 F18000
G1 F3000
G1 X98.985 Y4.364 E.00517
G1 X99.018 Y3.852 E.01855
G1 X99.096 Y3.429 E.01553
G1 X99.211 Y3.066 E.01373
G1 X99.341 Y2.971 E.00584
G1 X99.546 Y2.971 E.00738
G1 X99.65 Y3.019 E.00413
G1 X99.673 Y3.159 E.00514
G1 X99.623 Y3.283 E.0048
G1 X99.458 Y4.143 E.03162
G1 X99.481 Y10.188 E.21828
G1 X99.551 Y10.564 E.0138
G1 X99.639 Y10.858 E.01108
G1 X100.06 Y11.638 E.03202
G1 X100.213 Y11.825 E.0087
G1 X100.623 Y12.219 E.02053
G1 X100.95 Y12.448 E.01442
G1 X101.294 Y12.622 E.01394
G1 X101.957 Y12.831 E.02507
G1 X102.563 Y12.903 E.02204
G1 X117.338 Y12.903 E.53346
G1 X117.818 Y12.859 E.01743
G1 X118.205 Y12.774 E.01431
G1 X118.851 Y12.497 E.02537
G1 X119.376 Y12.135 E.023
G1 X119.638 Y11.879 E.01324
G1 X119.914 Y11.527 E.01613
G1 X120.193 Y11.009 E.02126
G1 X120.387 Y10.378 E.02384
G1 X120.453 Y9.846 E.01935
G1 X120.438 Y4.116 E.20687
G1 X120.348 Y3.538 E.02113
G1 X120.224 Y3.15 E.01471
G1 X120.237 Y3.036 E.00413
G1 X120.354 Y2.971 E.00483
G1 X120.549 Y2.971 E.00704
G1 X120.678 Y3.06 E.00563
G1 X120.757 Y3.275 E.00829
G1 X120.861 Y3.735 E.01702
G1 X120.914 Y4.406 E.02432
G1 X120.913 Y9.719 E.19181
G1 X120.874 Y10.286 E.02051
G1 X120.796 Y10.687 E.01477
G1 X120.664 Y11.09 E.01532
G1 X120.465 Y11.511 E.01682
G1 X120.213 Y11.914 E.01714
G1 X119.936 Y12.253 E.01582
G1 X119.612 Y12.556 E.01601
G1 X119.269 Y12.805 E.01531
G1 X118.89 Y13.008 E.01551
G1 X118.318 Y13.219 E.02202
G1 X117.886 Y13.312 E.01595
G1 X117.241 Y13.36 E.02338
G1 X102.63 Y13.36 E.52754
G1 X102.099 Y13.327 E.0192
G1 X101.68 Y13.248 E.01538
G1 X101.265 Y13.115 E.01576
G1 X100.831 Y12.91 E.01733
G1 X100.417 Y12.65 E.01764
G1 X100.081 Y12.372 E.01574
G1 X99.789 Y12.06 E.01542
G1 X99.548 Y11.729 E.01478
G1 X99.344 Y11.354 E.01543
G1 X99.115 Y10.73 E.024
G1 X99.035 Y10.352 E.01394
G1 X98.986 Y9.728 E.02261
G1 X98.985 Y4.548 E.18704
G1 X100.82 Y4.544 F18000
G1 F3000
G1 X100.82 Y4.205 E.01222
G1 X100.89 Y3.809 E.01453
G1 X100.996 Y3.527 E.0109
G1 X101.111 Y3.341 E.00788
G1 X101.351 Y3.052 E.01358
G1 X101.643 Y2.823 E.01339
G1 X101.911 Y2.688 E.01083
G1 X102.205 Y2.6 E.01107
G1 X102.54 Y2.561 E.01218
G1 X117.353 Y2.561 E.53485
G1 X117.741 Y2.614 E.01413
G1 X118.03 Y2.704 E.01093
G1 X118.155 Y2.767 E.00504
G1 X118.461 Y2.978 E.01341
G1 X118.723 Y3.245 E.01353
G1 X118.95 Y3.644 E.01657
G1 X118.998 Y3.775 E.00504
G1 X119.066 Y4.086 E.01151
G1 X119.085 Y9.808 E.20657
G1 X119.044 Y10.139 E.01205
M73 P4 R11
G1 X118.914 Y10.535 E.01505
G1 X118.794 Y10.746 E.00876
G1 X118.654 Y10.929 E.00833
G1 X118.402 Y11.17 E.01259
G1 X118.296 Y11.244 E.00466
G1 X117.907 Y11.436 E.01565
G1 X117.695 Y11.493 E.00793
G1 X117.358 Y11.532 E.01225
G1 X102.537 Y11.532 E.53514
G1 X102.206 Y11.491 E.01203
G1 X101.81 Y11.361 E.01505
G1 X101.599 Y11.241 E.00876
G1 X101.416 Y11.101 E.00833
G1 X101.175 Y10.849 E.01259
G1 X100.948 Y10.449 E.01659
G1 X100.9 Y10.318 E.00504
G1 X100.832 Y10.007 E.01151
G1 X100.82 Y4.584 E.1958
G1 X101.27 Y4.583 F18000
G1 F3000
G1 X101.27 Y4.284 E.01081
G1 X101.319 Y3.966 E.01161
G1 X101.39 Y3.758 E.00794
G1 X101.457 Y3.64 E.00489
G1 X101.709 Y3.336 E.01425
G1 X101.915 Y3.19 E.00914
G1 X102.112 Y3.098 E.00786
G1 X102.254 Y3.055 E.00534
G1 X102.532 Y3.018 E.01012
G1 X117.363 Y3.018 E.53548
G1 X117.681 Y3.067 E.01162
G1 X117.888 Y3.139 E.00794
G1 X118.213 Y3.362 E.01422
G1 X118.389 Y3.556 E.00945
G1 X118.55 Y3.864 E.01254
G1 X118.621 Y4.191 E.01211
G1 X118.628 Y9.817 E.20311
G1 X118.609 Y9.998 E.00658
G1 X118.515 Y10.312 E.01184
G1 X118.436 Y10.461 E.00609
G1 X118.284 Y10.661 E.00905
G1 X118.09 Y10.835 E.00942
G1 X117.783 Y10.996 E.01254
G1 X117.644 Y11.039 E.00524
G1 X117.366 Y11.075 E.01012
G1 X102.528 Y11.075 E.53574
G1 X102.347 Y11.056 E.00658
G1 X102.033 Y10.962 E.01184
G1 X101.884 Y10.883 E.00609
G1 X101.684 Y10.731 E.00905
G1 X101.509 Y10.537 E.00942
G1 X101.348 Y10.229 E.01254
G1 X101.277 Y9.902 E.01211
G1 X101.27 Y4.623 E.19059
G1 X101.727 Y4.623 F18000
G1 F3000
G1 X101.727 Y4.273 E.01263
G1 X101.77 Y4.04 E.00857
G1 X101.817 Y3.921 E.0046
G1 X101.985 Y3.7 E.01005
G1 X102.099 Y3.609 E.00525
G1 X102.316 Y3.507 E.00865
G1 X102.523 Y3.475 E.00758
G1 X117.373 Y3.475 E.53618
G1 X117.607 Y3.518 E.00857
G1 X117.725 Y3.565 E.0046
G1 X117.947 Y3.734 E.01005
G1 X118.037 Y3.847 E.00525
G1 X118.139 Y4.064 E.00865
G1 X118.171 Y4.271 E.00758
G1 X118.171 Y9.824 E.20047
G1 X118.155 Y9.95 E.0046
G1 X118.079 Y10.175 E.00857
G1 X117.913 Y10.394 E.00992
G1 X117.799 Y10.484 E.00525
G1 X117.582 Y10.586 E.00865
G1 X117.375 Y10.618 E.00758
G1 X102.521 Y10.618 E.53631
G1 X102.395 Y10.602 E.0046
G1 X102.17 Y10.526 E.00857
G1 X101.951 Y10.36 E.00992
G1 X101.861 Y10.246 E.00525
G1 X101.759 Y10.029 E.00865
G1 X101.727 Y9.822 E.00758
G1 X101.727 Y4.663 E.18626
G1 X102.184 Y4.663 F18000
G1 F3000
G1 X102.184 Y4.261 E.01453
G1 X102.212 Y4.15 E.00413
G1 X102.259 Y4.066 E.0035
G1 X102.396 Y3.957 E.00632
G1 X102.512 Y3.932 E.00429
G1 X117.386 Y3.932 E.53701
G1 X117.496 Y3.961 E.00413
G1 X117.581 Y4.008 E.0035
G1 X117.69 Y4.145 E.00632
G1 X117.714 Y4.261 E.00429
G1 X117.714 Y9.832 E.20116
G1 X117.685 Y9.943 E.00413
G1 X117.639 Y10.028 E.0035
G1 X117.502 Y10.137 E.00632
G1 X117.386 Y10.161 E.00429
